assets/svgs/metal-bar-stainless-steel-construction.svg

<svg height="64" viewBox="0 0 64 64" width="64" xmlns="http://www.w3.org/2000/svg"><path d="m7.5 27.79 29 29v-10.58l-29-29z" fill="#ba9bc9"/><path d="m55.79 35.5-29-29h-10.58l29 29z" fill="#65c8d0"/><path d="m18.79 16.5h-10.58l29 29h10.58z" fill="#65c8d0"/><path d="m19.35 15.65 25.15 25.14v-4.58l-29-29v8.29h3.5a.47.47 0 0 1 .35.15z" fill="#ba9bc9"/><path d="m45.5 41.79 3.85 3.86a.49.49 0 0 1 .15.35v1.5h7v-11h-11z" fill="#838bc5"/><path d="m37.5 46.5h11v11h-11z" fill="#838bc5"/><path d="m57.71 35.29-30-30a1 1 0 0 0 -.71-.29h-12a1 1 0 0 0 -1 1v9h-7a1 1 0 0 0 -1 1v12a1 1 0 0 0 .29.71l30 30a1 1 0 0 0 .71.29h12a1 1 0 0 0 1-1v-9h7a1 1 0 0 0 1-1v-12a1 1 0 0 0 -.29-.71zm-3.12-.29h-9.18l-28-28h9.18zm-45.18-18h9.18l28 28h-9.18zm6.59-8.59 28 28v3.18l-24.29-24.3a1 1 0 0 0 -.71-.29h-3zm-8 10 28 28v9.18l-28-28zm40 38.59h-10v-10h10zm8-10h-6v-1a1 1 0 0 0 -.29-.71l-3.71-3.7v-4.59h10z" fill="#f4ecce"/></svg>

<?xml version="1.0" ?><svg width="64px" height="64px" viewBox="0 0 64 64" data-name="Layer 1" id="Layer_1" xmlns="http://www.w3.org/2000/svg"><defs><style>.cls-1{fill:#ba9bc9;}.cls-2{fill:#65c8d0;}.cls-3{fill:#838bc5;}.cls-4{fill:#f4ecce;}</style></defs><polygon class="cls-1" points="7.5 27.79 36.5 56.79 36.5 46.21 7.5 17.21 7.5 27.79"/><polygon class="cls-2" points="55.79 35.5 26.79 6.5 16.21 6.5 45.21 35.5 55.79 35.5"/><polygon class="cls-2" points="18.79 16.5 8.21 16.5 37.21 45.5 47.79 45.5 18.79 16.5"/><path class="cls-1" d="M19.35,15.65,44.5,40.79V36.21l-29-29V15.5H19A.47.47,0,0,1,19.35,15.65Z"/><path class="cls-3" d="M45.5,41.79l3.85,3.86a.49.49,0,0,1,.15.35v1.5h7v-11h-11Z"/><rect class="cls-3" height="11" width="11" x="37.5" y="46.5"/><path class="cls-4" d="M57.71,35.29l-30-30A1,1,0,0,0,27,5H15a1,1,0,0,0-1,1v9H7a1,1,0,0,0-1,1V28a1,1,0,0,0,.29.71l30,30A1,1,0,0,0,37,59H49a1,1,0,0,0,1-1V49h7a1,1,0,0,0,1-1V36A1,1,0,0,0,57.71,35.29ZM54.59,35H45.41l-28-28h9.18ZM9.41,17h9.18l28,28H37.41ZM16,8.41l28,28v3.18L19.71,15.29A1,1,0,0,0,19,15H16Zm-8,10,28,28v9.18l-28-28ZM48,57H38V47H48Zm8-10H50V46a1,1,0,0,0-.29-.71L46,41.59V37H56Z"/></svg>
